!!!OTL: Courtship of Willie Riley
!!!ONM: 74.
**kern
*clefG2
*k[b-]
*F:
!Referent unclear -- Conklin/Pearce 
*M6/8
*MM80
{8a
=1
4g
8e
4c
8c
=2
(4f
8g)
4a}
{8a
=3
4g
8f
4c
8c
=4
4.c
4r}
{8c
=5
(4f
8a)
4cc
8cc
=6
4.cc
4cc}
{8dd
=7
4cc
8dd
4a
8g
=8
4.a
4r}
{8c
=9
4f
8g
4a
8b-
=10
8cc
[4cc
8cc]
8r}
{8dd
=11
4cc
8dd
4a
8g
=12
4.a
4r}
{16a
16a
=13
4g
8f
4c
8c
=14
(4f
8g)
4a}
{8a
=15
(4g
8f)
4c
8c
=16
[4.c
8c]
8r}
==
*-
!!!CNT: Folksongs of Maritime Canada
!!!MRD: 1928///-1932///
!!!OCL: Helen Creighton
!!!YOR: Songs and Ballads from Nova Scotia
!!!PPR: J.M. Dent & Sons, Limited
!!!PPP: Toronto, Canada
!!!PDT: 1932///
!!!reprint: Dover Publications, 1992: ISBN 0-486-21703-5
!!!ENC1: Craig Stuart Sapp (music and bibliographic data)                       
!!!ENC2: Marcus Pearce (phrase markings and key designations)                   
!!!ENC3: Darrell Conklin (phrase markings and key designations)   
!!!END: 2002/04/10/
!!!EEV: 2004/06/05
!!!MPN: Mr. Ben Henneberry
!!!PPG: 152
!!!EFL: 75/152
!!!ARE: Canada; Nova Scotia
!!!verses: 78 [sic]
!!!VTS: 1429888188
